X:1
T:Leave Me Not, O Gentle Savior
T:Leave Me Not, O Gentle Savior
T:Harry J. Kurzenknabe
T:Lizzie Ashbaugh, 1889
T:Public Domain Courtesy of the Cyber Hymnal™
C:Harry J. Kurzenknabe
Z:Public Domain
Z:Courtesy of the Cyber Hymnal™
%%score ( 1 2 ) ( 3 4 )
L:1/8
Q:1/4=95
M:6/8
K:Bb
V:1 treble 
V:2 treble 
V:3 bass 
V:4 bass 
V:1
 [Fd]2 [Fd] [^Fd]2 [Fc] | [Gc]2 [DB] [CB]2 [CA] | [B,G]2 [B,G] [B,F]2 [DB] | (dc)[_EB] [Ec]3 | %4
w: 1.~Leave me not, for|I am lone- ly,|And the way I|can- * not see;|
w: 2.~Leave me not, for|dark- ness ga- thers|Round a- bout the|path * I tread;|
w: 3.~Leave me not, for|sin is near me;|With tempt- a- tion|life * is fraught;|
 [Fd]2 [Fd] [^Fd]2 [Fc] | [Gc]2 [DB] (BA)[=CG] | (FB)[Fd] [Ff]2 [Fd] | [Ed]2 [Ec] [DB]3 || %8
w: Lest I wan- der|in- to dan- * ger,|Keep * me, Sav- ior,|close to Thee.|
w: Leave me not, but|let my foot- * steps|Ev- * er by Thy|hand be led.|
w: Then through all life’s|toil- some jour- * ney,|O, * my Sav- ior,|leave me not.|
"^Refrain" [Fd]3 [DB]3 | [Ge]3 [EG]3 | [DF]2 [DB] (dc)[_EB] | [Ec]6 | [Fd]2 [Fd] [^Fd]2 [Fc] | %13
w: Sav- ior,|Sav- ior,|Keep me near * to|Thee;|Lest I wan- der|
w: |||||
w: |||||
 [Gc]2 [DB] (BA)[=CG] | (FB)[Fd] !fermata![Ff]2 [Fd] | [Ed]2 [Ec] [DB]3 |] %16
w: in- to dan- * ger,|Keep * me, Sav- ior,|near to Thee.|
w: |||
w: |||
V:2
 x6 | x6 | x6 | =E2 x4 | x6 | x3 ^C2 x | D2 x4 | x6 || x6 | x6 | x3 =E2 x | x6 | x6 | x3 ^C2 x | %14
 D2 x4 | x6 |] %16
V:3
 [B,,B,]2 [B,,B,] [D,A,]2 [D,D] | [G,D]2 G, [D,^F,]2 [D,F,] | [E,G,]2 [E,G,] [D,B,]2 [B,,B,] | %3
w: ~ ~ ~ ~|~ ~ ~ ~|~ ~ ~ ~|
 [C,G,]2 [C,C] [F,A,]3 | [B,,B,]2 [B,,B,] [D,A,]2 [D,D] | [G,D]2 G, [=E,G,]2 [E,B,] | %6
w: ~ ~ ~|~ ~ ~ ~|~ ~ ~ ~|
 [F,B,]2 [F,B,] [F,D]2 [F,B,] | [F,A,]2 [F,A,] [B,,B,]3 || B,2 B, B,2 B, | %9
w: ~ ~ ~ ~|~ ~ ~|Leave me not, O|
 [E,B,]2 [E,B,] [E,B,]2 [E,B,] | [B,,B,]2 [B,,B,] [C,G,]2 [C,C] | [F,A,]A,G, F, (E,C,) | %12
w: Gen- tle Sav- ior;|~ ~ ~ ~|Keep me near to Thee: *|
 [B,,B,]2 [B,,B,] [D,A,]2 [D,D] | [G,D]2 G, [=E,G,]2 [E,B,] | %14
w: ||
 [F,B,]2 [F,B,] !fermata![F,D]2 [F,B,] | [F,A,]2 F, [B,,F,]3 |] %16
w: ||
V:4
 x6 | x2 G, x3 | x6 | x6 | x6 | x2 G, x3 | x6 | x6 || B,2 B, B,2 B, | x6 | x6 | x6 | x6 | %13
 x2 G, x3 | x6 | x2 F, x3 |] %16

